exported-svg/key.svg

<svg height="24" viewBox="0 0 24 24" width="24" xmlns="http://www.w3.org/2000/svg"><path d="m6.94 22.74c-2.61254318.0059397-4.9222679-1.6958049-5.6907291-4.1927799-.76846121-2.4969751.18476803-5.2029162 2.34857829-6.666932s5.03016078-1.3423702 7.06215081.2997119l10-10c.0907333-.09667723.2174141-.15151865.35-.15151865s.2592667.05484142.35.15151865c.0966772.09073333.1515186.21741409.1515186.35s-.0548414.25926667-.1515186.35l-1.79 1.81 2.64 2.64c.0986937.09336473.1531999.22417962.1501334.36-.0030704.13165728-.0568209.25707509-.1501334.35l-3.55 3.45c-.1944218.1905714-.5055782.1905714-.7 0l-2.6-2.6-4 4c1.5445031 1.7504615 1.920498 4.2433063.9610029 6.3714451-.9594952 2.1281387-3.07656443 3.4969576-5.4110029 3.4985549zm0-10.87c-1.99895262 0-3.80088529 1.2046813-4.5649138 3.0518608-.7640285 1.8471795-.33954699 3.9727439 1.07535733 5.384784 1.41490432 1.4120402 3.5413245 1.8322137 5.386952 1.0644437 1.84562747-.7677699 3.04665097-2.57214 3.04261467-4.5710885-.0055252-2.7243806-2.21562401-4.93-4.9400102-4.93zm9.13-3.68 2.25 2.24 2.83-2.75-2.29-2.29z"/></svg>

<?xml version="1.0" encoding="UTF-8"?>
<svg width="24px" height="24px" viewBox="0 0 24 24" version="1.1" xmlns="http://www.w3.org/2000/svg" xmlns:xlink="http://www.w3.org/1999/xlink">
    <!-- Generator: Sketch 55.2 (78181) - https://sketchapp.com -->
    <title>key</title>
    <desc>Created with Sketch.</desc>
    <g id="key" stroke="none" stroke-width="1" fill="none" fill-rule="evenodd">
        <path d="M6.94,22.74 C4.32745682,22.7459397 2.0177321,21.0441951 1.2492709,18.5472201 C0.480809694,16.050245 1.43403893,13.3443039 3.59784919,11.8802881 C5.76165945,10.4162723 8.62800997,10.5379179 10.66,12.18 L20.66,2.18 C20.7507333,2.08332277 20.8774141,2.02848135 21.01,2.02848135 C21.1425859,2.02848135 21.2692667,2.08332277 21.36,2.18 C21.4566772,2.27073333 21.5115186,2.39741409 21.5115186,2.53 C21.5115186,2.66258591 21.4566772,2.78926667 21.36,2.88 L19.57,4.69 L22.21,7.33 C22.3086937,7.42336473 22.3631999,7.55417962 22.3601334,7.69 C22.357063,7.82165728 22.3033125,7.94707509 22.21,8.04 L18.66,11.49 C18.4655782,11.6805714 18.1544218,11.6805714 17.96,11.49 L15.36,8.89 L11.36,12.89 C12.9045031,14.6404615 13.280498,17.1333063 12.3210029,19.2614451 C11.3615077,21.3895838 9.24443847,22.7584027 6.91,22.76 L6.94,22.74 Z M6.94,11.87 C4.94104738,11.87 3.13911471,13.0746813 2.3750862,14.9218608 C1.6110577,16.7690403 2.03553921,18.8946047 3.45044353,20.3066448 C4.86534785,21.718685 6.99176803,22.1388585 8.83739553,21.3710885 C10.683023,20.6033186 11.8840465,18.7989485 11.8800102,16.8 C11.874485,14.0756194 9.66438619,11.87 6.94,11.87 Z M16.07,8.19 L18.32,10.43 L21.15,7.68 L18.86,5.39 L16.07,8.19 Z" id="Shape" fill="#000000" fill-rule="nonzero"></path>
    </g>
</svg>
